symbols/web/network_cell/materialsymbolsrounded/network_cell_wght600grad200_40px.svg

<svg xmlns="http://www.w3.org/2000/svg" height="40" width="40"><path d="M6.917 37.208q-1.334 0-1.855-1.208-.52-1.208.438-2.208l29.042-29q.958-.959 2.187-.459 1.229.5 1.229 1.875V35.25q0 .833-.583 1.396-.583.562-1.417.562Zm21.541-4.041h5.459V11.083L28.458 16.5Z"/></svg>

<svg xmlns="http://www.w3.org/2000/svg" height="40" width="40"><path d="M6.917 37.208Q5.583 37.208 5.062 36Q4.542 34.792 5.5 33.792L34.542 4.792Q35.5 3.833 36.729 4.333Q37.958 4.833 37.958 6.208V35.25Q37.958 36.083 37.375 36.646Q36.792 37.208 35.958 37.208ZM28.458 33.167H33.917V11.083L28.458 16.5Z"/></svg>
